X: 1
T: Norsk Schottis
T: "Three-key" Shottis
T: B\"ol-Olles schottis   (Dm/F,D,Dm)
O: trad Finland
R: shottish
Z: 2013 John Chambers <jc:trillian.mit.edu>
M: 2/4
L: 1/16
K: DDor
A2 |\
"Dm"DEFG A2A2 | "G"AGBG "Dm"A2F2 |\
"C"FEGE "Dm"F2DF | "A7"ED^C2 "Dm"D4 :|
|: A2 |\
"F"FGAB c2c2 | "G"cBdB "Dm"c2A2 |\
"C"AGBG "Dm"A2FA | "A7"GFE2 "Dm"F4 :|
K: D
|: ag |\
"D"f2d2 f2ed | "A7"c2A2 A3A |\
[1,3 "G"GFEF GABd | "A7"c2 A2 A4 :|\
[2,4 "G"GFEF "A7"GABc | "D"d2dc d2 :|
K: Dm
|: A2 |\
"Bb"d4 "C7"c3B | "F"ABAG "Dm"AFDE |\
[1,3 "F"F2F2 "Gm"GABG | "Dm"A2A2 "A7"A3A :|\
[2,4 "F"F2FG "A7"FED^C | "Dm"D2D2 D2 :|
W: The 2nd part is a harmony to the 1st part; they can be played together.

%%sep 1 1 500

